X: 1
T: Dapper's Delight
M: 4/4
L: 1/8
R: hornpipe
K: Gmaj
|:(3DEF | GABd cAde | (3fed fa gfdc | ABcA d2cA | GBAG FDGF |
DG3 Adfa | g2fa gfdc | ABcA dBcF | AGGF G2 :|
|:(3ABc | dg (3fga gdBG | DGBd gdBd | =f2eg fcAB | c=fag fdcA |
BG3 DGBG | Adfa gfdc | ABcA dBcF | AGGF G2 :|
